assets/Crescent moon/Flat/crescent_moon_flat.svg

<svg width="32" height="32" viewBox="0 0 32 32" fill="none" xmlns="http://www.w3.org/2000/svg">
<path d="M23.4106 5.63236C23.9106 7.67236 23.9706 9.89235 23.4306 12.1924C22.1706 17.5224 17.7906 21.7024 12.4106 22.6724C9.50056 23.2024 6.73057 22.8024 4.32056 21.7524C3.76056 21.5024 3.23056 22.1424 3.52056 22.6824C6.17057 27.5624 11.6306 30.6824 17.7406 29.8724C23.9706 29.0424 28.9606 23.9624 29.7106 17.7224C30.3106 12.5424 28.1106 7.86236 24.4306 4.97236C23.9606 4.61236 23.2706 5.05236 23.4106 5.63236Z" fill="#FCD53F"/>
<path d="M27.8706 12.5623C27.8706 13.4294 27.1677 14.1323 26.3006 14.1323C25.4335 14.1323 24.7306 13.4294 24.7306 12.5623C24.7306 11.6952 25.4335 10.9923 26.3006 10.9923C27.1677 10.9923 27.8706 11.6952 27.8706 12.5623ZM14.9505 25.4423C14.9505 26.3094 14.2476 27.0123 13.3805 27.0123C12.5135 27.0123 11.8105 26.3094 11.8105 25.4423C11.8105 24.5752 12.5135 23.8723 13.3805 23.8723C14.2476 23.8723 14.9505 24.5752 14.9505 25.4423ZM26.8005 18.9723C27.3473 18.9723 27.7905 18.5291 27.7905 17.9823C27.7905 17.4355 27.3473 16.9923 26.8005 16.9923C26.2538 16.9923 25.8105 17.4355 25.8105 17.9823C25.8105 18.5291 26.2538 18.9723 26.8005 18.9723ZM24.8005 21.9823C24.8005 23.6392 23.4574 24.9823 21.8005 24.9823C20.1437 24.9823 18.8005 23.6392 18.8005 21.9823C18.8005 20.3254 20.1437 18.9823 21.8005 18.9823C23.4574 18.9823 24.8005 20.3254 24.8005 21.9823Z" fill="#F9C23C"/>
</svg>

<svg xmlns="http://www.w3.org/2000/svg" width="32" height="32" fill="none"><path fill="#FCD53F" d="M23.41 5.632c.5 2.04.56 4.26.02 6.56-1.26 5.33-5.64 9.51-11.02 10.48-2.91.53-5.68.13-8.09-.92-.56-.25-1.09.39-.8.93 2.65 4.88 8.11 8 14.22 7.19 6.23-.83 11.22-5.91 11.97-12.15.6-5.18-1.6-9.86-5.28-12.75-.47-.36-1.16.08-1.02.66Z"/><path fill="#F9C23C" d="M27.87 12.562a1.57 1.57 0 1 1-3.14 0 1.57 1.57 0 0 1 3.14 0Zm-12.92 12.88a1.57 1.57 0 1 1-3.14 0 1.57 1.57 0 0 1 3.14 0Zm11.85-6.47a.99.99 0 1 0 0-1.98.99.99 0 0 0 0 1.98Zm-2 3.01a3 3 0 1 1-6 0 3 3 0 0 1 6 0Z"/></svg>
